images/icons/instagram--white.svg

<svg version="1.1" id="Layer_1" xmlns="http://www.w3.org/2000/svg" x="0" y="0" viewBox="0 0 24 24" xml:space="preserve"><style>.st0{fill:#fff}</style><path class="st0" d="M16 3.9c1 0 1.5.2 1.9.3.5.2.8.4 1.1.8.4.3.6.7.7 1.2.2.3.4.8.4 1.8 0 1.1.1 1.4.1 4 0 2.7 0 3-.1 4 0 1-.2 1.5-.3 1.9-.2.5-.4.8-.7 1.1-.4.4-.7.6-1.1.7-.4.1-.9.3-1.9.3-1.1 0-1.4.1-4 .1-2.7 0-3 0-4-.1-1 0-1.5-.2-1.9-.3-.5-.1-.9-.3-1.2-.7-.3-.3-.6-.7-.7-1.1-.2-.4-.4-.9-.4-1.9 0-1.1-.1-1.4-.1-4 0-2.7 0-3 .1-4 0-1 .2-1.5.3-1.9.2-.5.4-.8.8-1.1.3-.3.7-.6 1.2-.7.3-.2.8-.4 1.8-.4 1.1 0 1.4-.1 4-.1 2.7 0 3 0 4 .1zM7.9 2.1c-1.1 0-1.8.2-2.4.5-.7.2-1.3.6-1.8 1.1-.5.5-.9 1.1-1.2 1.7-.2.7-.4 1.4-.4 2.5C2 8.9 2 9.3 2 12s0 3.1.1 4.1c0 1.1.2 1.8.5 2.4.3.7.6 1.3 1.2 1.8.5.5 1.1.9 1.8 1.2.6.2 1.4.4 2.4.5h4c2.7 0 3.1 0 4.1-.1 1.1 0 1.8-.2 2.4-.5.7-.3 1.3-.6 1.8-1.2.5-.5.9-1.1 1.2-1.8.2-.6.4-1.4.5-2.4 0-1.1.1-1.4.1-4.1s0-3.1-.1-4.1c0-1.1-.2-1.8-.5-2.4-.3-.7-.6-1.3-1.2-1.8-.5-.5-1.1-.9-1.8-1.2-.6-.2-1.4-.4-2.4-.5-1 .1-1.4.1-4.1.1s-3.1 0-4.1.1z"/><path class="st0" d="M12 7c-2.8 0-5 2.2-5 5s2.2 5 5 5 5-2.2 5-5-2.2-5-5-5m0 8.2c-1.8 0-3.2-1.5-3.2-3.2s1.5-3.2 3.2-3.2 3.2 1.5 3.2 3.2-1.4 3.2-3.2 3.2m6.7-7.8c0 .7-.6 1.3-1.3 1.3s-1.3-.6-1.3-1.3.6-1.3 1.3-1.3 1.3.6 1.3 1.3"/></svg>

<?xml version="1.0" encoding="utf-8"?>
<!-- Generator: Adobe Illustrator 22.1.0, SVG Export Plug-In . SVG Version: 6.00 Build 0)  -->
<svg version="1.1" id="Layer_1" xmlns="http://www.w3.org/2000/svg" xmlns:xlink="http://www.w3.org/1999/xlink" x="0px" y="0px"
	 viewBox="0 0 24 24" style="enable-background:new 0 0 24 24;" xml:space="preserve">
<style type="text/css">
	.st0{fill:#FFFFFF;}
</style>
<g>
	<path class="st0" d="M16,3.9c1,0,1.5,0.2,1.9,0.3C18.4,4.4,18.7,4.6,19,5c0.4,0.3,0.6,0.7,0.7,1.2C19.9,6.5,20.1,7,20.1,8
		c0,1.1,0.1,1.4,0.1,4c0,2.7,0,3-0.1,4c0,1-0.2,1.5-0.3,1.9c-0.2,0.5-0.4,0.8-0.7,1.1c-0.4,0.4-0.7,0.6-1.1,0.7
		c-0.4,0.1-0.9,0.3-1.9,0.3c-1.1,0-1.4,0.1-4,0.1c-2.7,0-3,0-4-0.1c-1,0-1.5-0.2-1.9-0.3C5.7,19.6,5.3,19.4,5,19
		c-0.3-0.3-0.6-0.7-0.7-1.1C4.1,17.5,3.9,17,3.9,16c0-1.1-0.1-1.4-0.1-4c0-2.7,0-3,0.1-4c0-1,0.2-1.5,0.3-1.9C4.4,5.6,4.6,5.3,5,5
		c0.3-0.3,0.7-0.6,1.2-0.7C6.5,4.1,7,3.9,8,3.9c1.1,0,1.4-0.1,4-0.1C14.7,3.8,15,3.8,16,3.9z M7.9,2.1c-1.1,0-1.8,0.2-2.4,0.5
		C4.8,2.8,4.2,3.2,3.7,3.7C3.2,4.2,2.8,4.8,2.5,5.4C2.3,6.1,2.1,6.8,2.1,7.9C2,8.9,2,9.3,2,12s0,3.1,0.1,4.1c0,1.1,0.2,1.8,0.5,2.4
		c0.3,0.7,0.6,1.3,1.2,1.8c0.5,0.5,1.1,0.9,1.8,1.2c0.6,0.2,1.4,0.4,2.4,0.5C8.9,22,9.3,22,12,22s3.1,0,4.1-0.1
		c1.1,0,1.8-0.2,2.4-0.5c0.7-0.3,1.3-0.6,1.8-1.2c0.5-0.5,0.9-1.1,1.2-1.8c0.2-0.6,0.4-1.4,0.5-2.4c0-1.1,0.1-1.4,0.1-4.1
		s0-3.1-0.1-4.1c0-1.1-0.2-1.8-0.5-2.4c-0.3-0.7-0.6-1.3-1.2-1.8c-0.5-0.5-1.1-0.9-1.8-1.2c-0.6-0.2-1.4-0.4-2.4-0.5
		C15.1,2,14.7,2,12,2S8.9,2,7.9,2.1z"/>
	<path class="st0" d="M12,7c-2.8,0-5,2.2-5,5s2.2,5,5,5s5-2.2,5-5S14.8,7,12,7 M12,15.2c-1.8,0-3.2-1.5-3.2-3.2s1.5-3.2,3.2-3.2
		s3.2,1.5,3.2,3.2S13.8,15.2,12,15.2L12,15.2 M18.7,7.4c0,0.7-0.6,1.3-1.3,1.3s-1.3-0.6-1.3-1.3s0.6-1.3,1.3-1.3S18.7,6.7,18.7,7.4"
		/>
</g>
</svg>
